!!!COM: Bach, Johann Sebastian
!!!CDT: 1685///-1750///
!!!CNT@EN: German
!!!OTL: Menuet I from Cello Suite No. 1 in G Major, BWV 1007
!!!OPR: Cello Suite No. 1 in G Major, BWV 1007
!!!OMD: Menuet I
!!!OMV: 5
!!!ODT: 1720///
!!!SCT: BWV 1007
!!!SCA: Thematisch-systematisches Verzeichnis der musikalischen Werke Johann Sebastian Bach: Bach-Werke-Verzeichnis (Schmieder)
**kern
*Icello
*>[A,A,B,B]
*>norep[A,B]
*>A
*clefF4
*k[f#]
*M3/4
*MM120
=1-
(8GG/L
8D/J
4B\)
(8A\L
16B\L
16c\JJ)
=2
(8B\L
8A\
8G\)
(8F#\
8G\
8D\J)
=3
(8E\L
8G\)
(8c\
8A\)
8F#\
8d\J
=4
(GGq/
2D\) 2B\
4D\ 4A\
=5
(8AA/L
8F#/J
4c\)
(8B\L
16c\L
16d\JJ)
=6
(8c\L
8B\)
(8A\
8G\)
8F#\
8E\J
=7
(8F#\L
16G\L
16A\JJ)
(8G\L
8F#\)
8E\
8F#\J
=8
4D\
(4AA/
4DD/)
=9:|!|:
*>B
(8D\L
8F#\J
4A\)
(8G\L
16A\L
16B\JJ)
=10
(8A\L
8G\
8F#\
8E\
8D\
8F#\J)
=11
(8BB\L
8D\
8G#\
8A\
8B\
8d\J
=12
8AA\L)
(8d\
8c\
8B\J)
4c\
=13
(8D#\L
8F#\
8A\)
(8c\
8B\
8A\J)
=14
(8B\L
8E\
8GG\)
(8A\
8c\
8B\J)
=15
8A\L
8G\
8F#\
8E\
8BB\
8D#\J
=16
4.EE/
(8E\L
8Dn\
8C\J)
=17
(8BB/L
8D/J
4G\)
(8D\L
16E\L
16Fn\JJ)
=18
(8Fn/L
8D/
8E/)
8C/
8CC/
8BB/J
=19
(8C#\L
8E\J
4A\)
(8E\L
16F#\L
16G\JJ)
=20
(8G\L
8E\
8F#\)
8D\
8DD\
8AA\J
=21
(8D\L
8F#\
8A\)
(8c\
8B\
8d\J)
=22
(8E\L
8G\
8B\)
(8d\
8c\
8e\J)
=23
8d\L
8F#\
8G\
8BB\
8DD\
8F#\J
=24
2.GG/ 2.G/
==:|!
*-
!!!ENC: Craig Stuart Sapp
!!!END: 2004/12/01/
